X:6120
T:Smash the Windows
O:england
R:Jig
M:6/8
L:1/8
K:D
A,|DFD F2A|d2f ecA|G2A F2A|E2F GFE|
DED F2A|d2f ecA|Bgf edc|~d3 d2:|
|:b|{ab}a2f d2e|f2g agf|g2e c2d|e2f gfe|
fed ~g3|agf bag|{fg}fed cde|~d3 d2||


